!!!SOCIAL_FUNCTION:	bird dance songs
!!!PDT:	1956
!!!OTL: No_149_Fox_Dance_Song_(d).krn
!!!LANG: Non-Tone
!!!LING_GROUP: Muskogean
!!!REG: Florida
**kern
*staff1
=1-
*clefF4
*k[f#]
*M2/4
4r
4G\
=2
4G\
(8E\L
8D\J)
=3!|:
[2G\
=4
8G\]
8r
4A\
=5
4G\
(8E\L
8D\J)
=6
4D;\
4D\
=7
16D\LK
8.D\J
4BB/
=8
8BB;/
8r
4D\
=9
4D\
4E\
=10||
*M3/4
2D\
4D\
=11||
*M2/4
16D\LK
8.D\J
4BB/
=12
8BB/
8r
4A\
=13
4A\
8A\L
8A\J
=14:|!
8BB/
8r
4G\
=15
4G\
8E\L
8D\J
=16:|!
4BB/
4r
==
*-
